src/16/actions/zoom-2-to-1.svg

<svg xmlns="http://www.w3.org/2000/svg" width="16" height="16" viewBox="0 0 16 16">
 <defs>
  <style id="current-color-scheme" type="text/css">
   .ColorScheme-Text { color:#565656; } .ColorScheme-Highlight { color:#5294e2; }
  </style>
 </defs>
 <path style="fill:currentColor" class="ColorScheme-Text" d="M 3.1894531 2 C 2.5267531 2 2.0019531 2.54894 2.0019531 3.21875 L 2.0019531 7 L 4.0019531 7 L 4.0019531 4 L 7.0019531 4 L 7.0019531 2 L 3.1894531 2 z M 9.0019531 2 L 9.0019531 4 L 12.001953 4 L 12.001953 7 L 14.001953 7 L 14.001953 3.21875 C 14.001953 2.54894 13.477153 2 12.814453 2 L 9.0019531 2 z M 5.0019531 5 L 5.0019531 11 L 7.0019531 11 L 7.0019531 5 L 5.0019531 5 z M 8.0019531 6 L 8.0019531 10 L 10.001953 8 L 8.0019531 6 z M 10.001953 8 L 10.001953 10 L 11.001953 10 L 11.001953 6 L 10.001953 6 L 10.001953 8 z M 2.0019531 9 L 2.0019531 12.78125 C 2.0019531 13.45106 2.5267531 14 3.1894531 14 L 7.0019531 14 L 7.0019531 12 L 4.0019531 12 L 4.0019531 9 L 2.0019531 9 z M 12.001953 9 L 12.001953 12 L 9.0019531 12 L 9.0019531 14 L 12.814453 14 C 13.477153 14 14.001953 13.45106 14.001953 12.78125 L 14.001953 9 L 12.001953 9 z"/>
</svg>

<svg xmlns="http://www.w3.org/2000/svg" width="16" height="16"><defs><style id="current-color-scheme" type="text/css"></style></defs><path d="M3.19 2c-.663 0-1.188.549-1.188 1.219V7h2V4h3V2H3.189zm5.812 0v2h3v3h2V3.219c0-.67-.525-1.219-1.188-1.219H9.002zm-4 3v6h2V5h-2zm3 1v4l2-2-2-2zm2 2v2h1V6h-1v2zm-8 1v3.781c0 .67.525 1.219 1.187 1.219h3.813v-2h-3V9h-2zm10 0v3h-3v2h3.812c.663 0 1.188-.549 1.188-1.219V9h-2z" fill="currentColor" color="#565656"/></svg>
